; generated by Slic3r 0.9.8 on 2013-02-26 at 21:25:17

; layer_height = 0.4
; perimeters = 3
; top_solid_layers = 3
; bottom_solid_layers = 3
; fill_density = 0.4
; perimeter_speed = 30
; infill_speed = 60
; travel_speed = 130
; scale = 1
; nozzle_diameter = 0.5
; filament_diameter = 1.75
; extrusion_multiplier = 1
; perimeters extrusion width = 0.53mm
; infill extrusion width = 0.53mm
; first layer extrusion width = 1.00mm

M107
M190 S65 ; wait for bed temperature to be reached
M104 S205 ; set temperature
G28 ; home all axes
M109 S205 ; wait for temperature to be reached
G90 ; use absolute coordinates
G21 ; set units to millimeters
G92 E0
M82 ; use absolute distances for extrusion
G1 F1800.000 E-1.00000
G92 E0
G1 Z0.500 F7800.000
G1 X119.920 Y113.829
G1 F1800.000 E1.00000
G1 X119.160 Y114.149 F540.000 E1.15303
G1 X118.640 Y114.309 E1.25399
G1 X118.100 Y114.429 E1.35664
G1 X117.760 Y114.479 E1.42041
G1 X116.790 Y114.549 E1.60088
G1 X80.940 Y114.549 E8.25359
G1 X80.080 Y114.459 E8.41405
G1 X79.230 Y114.259 E8.57609
G1 X78.690 Y114.069 E8.68232
G1 X78.160 Y113.829 E8.79029
G1 X77.900 Y113.699 E8.84423
G1 X77.410 Y113.399 E8.95085
G1 X76.890 Y113.019 E9.07037
G1 X76.260 Y112.459 E9.22679
G1 X75.700 Y111.819 E9.38460
G1 X75.380 Y111.359 E9.48858
G1 X74.960 Y110.619 E9.64648
G1 X74.740 Y110.099 E9.75126
G1 X74.640 Y109.829 E9.80469
G1 X74.480 Y109.289 E9.90921
G1 X74.340 Y108.589 E10.04168
G1 X74.300 Y108.249 E10.10521
G1 X74.270 Y107.579 E10.22966
G1 X74.270 Y92.069 E13.10786
G1 X74.350 Y91.259 E13.25891
G1 X74.460 Y90.729 E13.35935
G1 X74.600 Y90.209 E13.45929
G1 X74.900 Y89.449 E13.61091
G1 X75.280 Y88.739 E13.76035
G1 X75.580 Y88.289 E13.86071
G1 X75.920 Y87.859 E13.96244
G1 X76.480 Y87.279 E14.11205
G1 X77.110 Y86.759 E14.26364
G1 X77.560 Y86.459 E14.36400
G1 X77.790 Y86.329 E14.41303
G1 X78.270 Y86.079 E14.51346
G1 X79.030 Y85.779 E14.66508
G1 X79.550 Y85.639 E14.76502
G1 X80.080 Y85.529 E14.86547
G1 X80.890 Y85.449 E15.01651
G1 X117.010 Y85.449 E21.71932
G1 X117.590 Y85.499 E21.82735
G1 X118.160 Y85.599 E21.93474
G1 X119.000 Y85.839 E22.09686
G1 X119.800 Y86.169 E22.25745
G1 X120.180 Y86.369 E22.33713
G1 X120.650 Y86.649 E22.43866
G1 X121.310 Y87.139 E22.59120
G1 X121.710 Y87.509 E22.69231
G1 X122.080 Y87.909 E22.79343
G1 X122.420 Y88.329 E22.89370
G1 X122.580 Y88.559 E22.94570
G1 X122.990 Y89.259 E23.09624
G1 X123.320 Y90.009 E23.24829
G1 X123.560 Y90.789 E23.39973
G1 X123.670 Y91.319 E23.50018
G1 X123.750 Y92.139 E23.65307
G1 X123.750 Y107.919 E26.58138
G1 X123.670 Y108.739 E26.73427
G1 X123.490 Y109.539 E26.88644
G1 X123.220 Y110.309 E27.03785
G1 X122.990 Y110.809 E27.13999
G1 X122.720 Y111.289 E27.24218
G1 X122.410 Y111.739 E27.34359
G1 X122.070 Y112.169 E27.44531
G1 X121.490 Y112.749 E27.59753
G1 X121.290 Y112.929 E27.64746
G1 X120.850 Y113.269 E27.75065
G1 X120.400 Y113.569 E27.85101
G1 X120.038 Y113.765 E27.92746
G1 X119.920 Y113.829 E27.95231
G1 F1800.000 E26.95231
G92 E0
G1 X83.770 Y107.663 F7800.000
G1 F1800.000 E1.00000
G1 X83.850 Y107.652 F540.000 E1.01483
G1 X83.770 Y107.663 F7800.000
G1 X83.715 Y107.620 F540.000 E1.02780
G1 X83.704 Y107.583 E1.03503
G1 F1800.000 E0.03503
G92 E0
G1 X81.310 Y107.652 F7800.000
G1 F1800.000 E1.00000
G1 X81.230 Y107.663 F540.000 E1.01483
G1 X81.175 Y107.620 E1.02780
G1 X81.164 Y107.583 E1.03503
G1 F1800.000 E0.03503
G92 E0
G1 X86.244 Y107.583 F7800.000
G1 F1800.000 E1.00000
G1 X86.255 Y107.620 F540.000 E1.00722
G1 X86.310 Y107.663 E1.02020
G1 X86.390 Y107.652 E1.03503
G1 F1800.000 E0.03503
G92 E0
G1 X88.784 Y107.583 F7800.000
G1 F1800.000 E1.00000
G1 X88.795 Y107.620 F540.000 E1.00723
G1 X88.850 Y107.663 E1.02020
G1 X88.930 Y107.652 E1.03503
G1 F1800.000 E0.03503
G92 E0
G1 X91.324 Y107.583 F7800.000
G1 F1800.000 E1.00000
G1 X91.335 Y107.620 F540.000 E1.00723
G1 X91.390 Y107.663 E1.02020
G1 X91.470 Y107.652 E1.03503
G1 F1800.000 E0.03503
G92 E0
G1 X93.864 Y107.583 F7800.000
G1 F1800.000 E1.00000
G1 X93.875 Y107.620 F540.000 E1.00723
G1 X93.930 Y107.663 E1.02020
G1 X94.010 Y107.652 E1.03503
G1 F1800.000 E0.03503
G92 E0
G1 X96.404 Y107.583 F7800.000
G1 F1800.000 E1.00000
G1 X96.415 Y107.620 F540.000 E1.00723
G1 X96.470 Y107.663 E1.02020
G1 X96.550 Y107.652 E1.03503
G1 F1800.000 E0.03503
G92 E0
G1 X98.944 Y107.583 F7800.000
G1 F1800.000 E1.00000
G1 X98.955 Y107.620 F540.000 E1.00723
G1 X99.010 Y107.663 E1.02020
G1 X99.090 Y107.652 E1.03503
G1 F1800.000 E0.03503
G92 E0
G1 X101.484 Y107.583 F7800.000
G1 F1800.000 E1.00000
G1 X101.495 Y107.620 F540.000 E1.00723
G1 X101.550 Y107.663 E1.02020
G1 X101.630 Y107.652 E1.03503
G1 F1800.000 E0.03503
G92 E0
G1 X104.024 Y107.583 F7800.000
G1 F1800.000 E1.00000
G1 X104.035 Y107.620 F540.000 E1.00723
G1 X104.090 Y107.663 E1.02020
G1 X104.170 Y107.652 E1.03503
G1 F1800.000 E0.03503
G92 E0
G1 X106.564 Y107.583 F7800.000
G1 F1800.000 E1.00000
G1 X106.575 Y107.620 F540.000 E1.00723
G1 X106.630 Y107.663 E1.02020
G1 X106.710 Y107.652 E1.03503
G1 F1800.000 E0.03503
G92 E0
G1 X109.104 Y107.583 F7800.000
G1 F1800.000 E1.00000
G1 X109.115 Y107.620 F540.000 E1.00723
G1 X109.170 Y107.663 E1.02020
G1 X109.250 Y107.652 E1.03503
G1 F1800.000 E0.03503
G92 E0
G1 X111.644 Y107.583 F7800.000
G1 F1800.000 E1.00000
G1 X111.655 Y107.620 F540.000 E1.00723
G1 X111.710 Y107.663 E1.02020
G1 X111.790 Y107.652 E1.03503
G1 F1800.000 E0.03503
G92 E0
G1 X114.184 Y107.583 F7800.000
G1 F1800.000 E1.00000
G1 X114.195 Y107.620 F540.000 E1.00723
G1 X114.250 Y107.663 E1.02020
G1 X114.330 Y107.652 E1.03503
G1 F1800.000 E0.03503
G92 E0
G1 X116.724 Y107.583 F7800.000
G1 F1800.000 E1.00000
G1 X116.735 Y107.620 F540.000 E1.00723
G1 X116.790 Y107.663 E1.02020
G1 X116.870 Y107.652 E1.03503
G1 F1800.000 E0.03503
G92 E0
G1 X116.790 Y92.423 F7800.000
G1 F1800.000 E1.00000
G1 X116.870 Y92.412 F540.000 E1.01482
G1 X116.790 Y92.423 F7800.000
G1 X116.735 Y92.380 F540.000 E1.02780
G1 X116.724 Y92.343 E1.03502
G1 F1800.000 E0.03502
G92 E0
G1 X114.330 Y92.412 F7800.000
G1 F1800.000 E1.00000
G1 X114.250 Y92.423 F540.000 E1.01482
G1 X114.195 Y92.380 E1.02780
G1 X114.184 Y92.343 E1.03502
G1 F1800.000 E0.03502
G92 E0
G1 X111.790 Y92.412 F7800.000
G1 F1800.000 E1.00000
G1 X111.710 Y92.423 F540.000 E1.01482
G1 X111.655 Y92.380 E1.02780
G1 X111.644 Y92.343 E1.03502
G1 F1800.000 E0.03502
G92 E0
G1 X109.250 Y92.412 F7800.000
G1 F1800.000 E1.00000
G1 X109.170 Y92.423 F540.000 E1.01482
G1 X109.115 Y92.380 E1.02780
G1 X109.104 Y92.343 E1.03502
G1 F1800.000 E0.03502
G92 E0
G1 X106.710 Y92.412 F7800.000
G1 F1800.000 E1.00000
G1 X106.630 Y92.423 F540.000 E1.01482
G1 X106.575 Y92.380 E1.02780
G1 X106.564 Y92.343 E1.03502
G1 F1800.000 E0.03502
G92 E0
G1 X104.170 Y92.412 F7800.000
G1 F1800.000 E1.00000
G1 X104.090 Y92.423 F540.000 E1.01482
G1 X104.035 Y92.380 E1.02780
G1 X104.024 Y92.343 E1.03502
G1 F1800.000 E0.03502
G92 E0
G1 X101.630 Y92.412 F7800.000
G1 F1800.000 E1.00000
G1 X101.550 Y92.423 F540.000 E1.01482
G1 X101.495 Y92.380 E1.02780
G1 X101.484 Y92.343 E1.03502
G1 F1800.000 E0.03502
G92 E0
G1 X99.090 Y92.412 F7800.000
G1 F1800.000 E1.00000
G1 X99.010 Y92.423 F540.000 E1.01482
G1 X98.955 Y92.380 E1.02780
G1 X98.944 Y92.343 E1.03502
G1 F1800.000 E0.03502
G92 E0
G1 X96.550 Y92.412 F7800.000
G1 F1800.000 E1.00000
G1 X96.470 Y92.423 F540.000 E1.01482
G1 X96.415 Y92.380 E1.02780
G1 X96.404 Y92.343 E1.03502
G1 F1800.000 E0.03502
G92 E0
G1 X94.010 Y92.412 F7800.000
G1 F1800.000 E1.00000
G1 X93.930 Y92.423 F540.000 E1.01482
G1 X93.875 Y92.380 E1.02780
G1 X93.864 Y92.343 E1.03502
G1 F1800.000 E0.03502
G92 E0
G1 X91.470 Y92.412 F7800.000
G1 F1800.000 E1.00000
G1 X91.390 Y92.423 F540.000 E1.01482
G1 X91.335 Y92.380 E1.02780
G1 X91.324 Y92.343 E1.03502
G1 F1800.000 E0.03502
G92 E0
G1 X88.930 Y92.412 F7800.000
G1 F1800.000 E1.00000
G1 X88.850 Y92.423 F540.000 E1.01482
G1 X88.795 Y92.380 E1.02780
G1 X88.784 Y92.343 E1.03502
G1 F1800.000 E0.03502
G92 E0
G1 X86.390 Y92.412 F7800.000
G1 F1800.000 E1.00000
G1 X86.310 Y92.423 F540.000 E1.01482
G1 X86.255 Y92.380 E1.02780
G1 X86.244 Y92.343 E1.03502
G1 F1800.000 E0.03502
G92 E0
G1 X83.850 Y92.412 F7800.000
G1 F1800.000 E1.00000
G1 X83.770 Y92.423 F540.000 E1.01482
G1 X83.715 Y92.380 E1.02780
G1 X83.704 Y92.343 E1.03502
G1 F1800.000 E0.03502
G92 E0
G1 X81.310 Y92.412 F7800.000
G1 F1800.000 E1.00000
G1 X81.230 Y92.423 F540.000 E1.01482
G1 X81.175 Y92.380 E1.02780
G1 X81.164 Y92.343 E1.03502
M106 S255
M104 S200 ; set temperature
M140 S60 ; set bed temperature
G1 F1800.000 E0.03502
G92 E0
G1 Z0.900 F7800.000
G1 X81.205 Y107.666
G1 F1800.000 E1.00000
G1 X81.256 Y107.713 F600.000 E1.00594
G1 X81.205 Y107.666 F7800.000
G1 X81.160 Y107.620 F600.000 E1.01153
G1 X81.134 Y107.552 E1.01785
G1 F1800.000 E0.01785
G92 E0
G1 X83.674 Y107.552 F7800.000
G1 F1800.000 E1.00000
G1 X83.700 Y107.620 F600.000 E1.00631
G1 X83.745 Y107.666 E1.01190
G1 X83.796 Y107.713 E1.01785
G1 F1800.000 E0.01785
G92 E0
G1 X86.214 Y107.552 F7800.000
G1 F1800.000 E1.00000
G1 X86.240 Y107.620 F600.000 E1.00631
G1 X86.285 Y107.666 E1.01190
G1 X86.336 Y107.713 E1.01785
G1 F1800.000 E0.01785
G92 E0
G1 X88.754 Y107.552 F7800.000
G1 F1800.000 E1.00000
G1 X88.780 Y107.620 F600.000 E1.00631
G1 X88.825 Y107.666 E1.01191
G1 X88.876 Y107.713 E1.01785
G1 F1800.000 E0.01785
G92 E0
G1 X91.294 Y107.552 F7800.000
G1 F1800.000 E1.00000
G1 X91.320 Y107.620 F600.000 E1.00631
G1 X91.365 Y107.666 E1.01191
G1 X91.416 Y107.713 E1.01785
G1 F1800.000 E0.01785
G92 E0
G1 X93.834 Y107.552 F7800.000
G1 F1800.000 E1.00000
G1 X93.860 Y107.620 F600.000 E1.00631
G1 X93.905 Y107.666 E1.01191
G1 X93.956 Y107.713 E1.01785
G1 F1800.000 E0.01785
G92 E0
G1 X96.374 Y107.552 F7800.000
G1 F1800.000 E1.00000
G1 X96.400 Y107.620 F600.000 E1.00631
G1 X96.445 Y107.666 E1.01191
G1 X96.496 Y107.713 E1.01785
G1 F1800.000 E0.01785
G92 E0
G1 X98.914 Y107.552 F7800.000
G1 F1800.000 E1.00000
G1 X98.940 Y107.620 F600.000 E1.00631
G1 X98.985 Y107.666 E1.01191
G1 X99.036 Y107.713 E1.01785
G1 F1800.000 E0.01785
G92 E0
G1 X101.454 Y107.552 F7800.000
G1 F1800.000 E1.00000
G1 X101.480 Y107.620 F600.000 E1.00631
G1 X101.525 Y107.666 E1.01191
G1 X101.576 Y107.713 E1.01785
G1 F1800.000 E0.01785
G92 E0
G1 X103.994 Y107.552 F7800.000
G1 F1800.000 E1.00000
G1 X104.020 Y107.620 F600.000 E1.00631
G1 X104.065 Y107.666 E1.01191
G1 X104.116 Y107.713 E1.01785
G1 F1800.000 E0.01785
G92 E0
G1 X106.534 Y107.552 F7800.000
G1 F1800.000 E1.00000
G1 X106.560 Y107.620 F600.000 E1.00631
G1 X106.605 Y107.666 E1.01191
G1 X106.656 Y107.713 E1.01785
G1 F1800.000 E0.01785
G92 E0
G1 X109.074 Y107.552 F7800.000
G1 F1800.000 E1.00000
G1 X109.100 Y107.620 F600.000 E1.00631
G1 X109.145 Y107.666 E1.01191
G1 X109.196 Y107.713 E1.01785
G1 F1800.000 E0.01785
G92 E0
G1 X111.614 Y107.552 F7800.000
G1 F1800.000 E1.00000
G1 X111.640 Y107.620 F600.000 E1.00631
G1 X111.685 Y107.666 E1.01191
G1 X111.736 Y107.713 E1.01785
G1 F1800.000 E0.01785
G92 E0
G1 X114.154 Y107.552 F7800.000
G1 F1800.000 E1.00000
G1 X114.180 Y107.620 F600.000 E1.00631
G1 X114.225 Y107.666 E1.01191
G1 X114.276 Y107.713 E1.01785
G1 F1800.000 E0.01785
G92 E0
G1 X116.694 Y107.552 F7800.000
G1 F1800.000 E1.00000
G1 X116.720 Y107.620 F600.000 E1.00631
G1 X116.765 Y107.666 E1.01191
G1 X116.816 Y107.713 E1.01785
G1 F1800.000 E0.01785
G92 E0
G1 X116.816 Y92.473 F7800.000
G1 F1800.000 E1.00000
G1 X116.765 Y92.426 F600.000 E1.00594
G1 X116.720 Y92.380 E1.01153
G1 X116.694 Y92.312 E1.01785
G1 F1800.000 E0.01785
G92 E0
G1 X114.276 Y92.473 F7800.000
G1 F1800.000 E1.00000
G1 X114.225 Y92.426 F600.000 E1.00594
G1 X114.180 Y92.380 E1.01153
G1 X114.154 Y92.312 E1.01785
G1 F1800.000 E0.01785
G92 E0
G1 X111.736 Y92.473 F7800.000
G1 F1800.000 E1.00000
G1 X111.685 Y92.426 F600.000 E1.00594
G1 X111.640 Y92.380 E1.01153
G1 X111.614 Y92.312 E1.01785
G1 F1800.000 E0.01785
G92 E0
G1 X109.196 Y92.473 F7800.000
G1 F1800.000 E1.00000
G1 X109.145 Y92.426 F600.000 E1.00594
G1 X109.100 Y92.380 E1.01153
G1 X109.074 Y92.312 E1.01785
G1 F1800.000 E0.01785
G92 E0
G1 X106.656 Y92.473 F7800.000
G1 F1800.000 E1.00000
G1 X106.605 Y92.426 F600.000 E1.00594
G1 X106.560 Y92.380 E1.01153
G1 X106.534 Y92.312 E1.01785
G1 F1800.000 E0.01785
G92 E0
G1 X104.116 Y92.473 F7800.000
G1 F1800.000 E1.00000
G1 X104.065 Y92.426 F600.000 E1.00594
G1 X104.020 Y92.380 E1.01153
G1 X103.994 Y92.312 E1.01785
G1 F1800.000 E0.01785
G92 E0
G1 X101.576 Y92.473 F7800.000
G1 F1800.000 E1.00000
G1 X101.525 Y92.426 F600.000 E1.00594
G1 X101.480 Y92.380 E1.01153
G1 X101.454 Y92.312 E1.01785
G1 F1800.000 E0.01785
G92 E0
G1 X99.036 Y92.473 F7800.000
G1 F1800.000 E1.00000
G1 X98.985 Y92.426 F600.000 E1.00594
G1 X98.940 Y92.380 E1.01153
G1 X98.914 Y92.312 E1.01785
G1 F1800.000 E0.01785
G92 E0
G1 X96.496 Y92.473 F7800.000
G1 F1800.000 E1.00000
G1 X96.445 Y92.426 F600.000 E1.00594
G1 X96.400 Y92.380 E1.01153
G1 X96.374 Y92.312 E1.01785
G1 F1800.000 E0.01785
G92 E0
G1 X93.956 Y92.473 F7800.000
G1 F1800.000 E1.00000
G1 X93.905 Y92.426 F600.000 E1.00594
G1 X93.860 Y92.380 E1.01153
G1 X93.834 Y92.312 E1.01785
G1 F1800.000 E0.01785
G92 E0
G1 X91.416 Y92.473 F7800.000
G1 F1800.000 E1.00000
G1 X91.365 Y92.426 F600.000 E1.00594
G1 X91.320 Y92.380 E1.01153
G1 X91.294 Y92.312 E1.01785
G1 F1800.000 E0.01785
G92 E0
G1 X88.876 Y92.473 F7800.000
G1 F1800.000 E1.00000
G1 X88.825 Y92.426 F600.000 E1.00594
G1 X88.780 Y92.380 E1.01153
G1 X88.754 Y92.312 E1.01785
G1 F1800.000 E0.01785
G92 E0
G1 X86.336 Y92.473 F7800.000
G1 F1800.000 E1.00000
G1 X86.285 Y92.426 F600.000 E1.00594
G1 X86.240 Y92.380 E1.01154
G1 X86.214 Y92.312 E1.01785
G1 F1800.000 E0.01785
G92 E0
G1 X83.796 Y92.473 F7800.000
G1 F1800.000 E1.00000
G1 X83.745 Y92.426 F600.000 E1.00594
G1 X83.700 Y92.380 E1.01154
G1 X83.674 Y92.312 E1.01785
G1 F1800.000 E0.01785
G92 E0
G1 X81.256 Y92.473 F7800.000
G1 F1800.000 E1.00000
G1 X81.205 Y92.426 F600.000 E1.00594
G1 X81.160 Y92.380 E1.01154
G1 X81.134 Y92.312 E1.01785
G1 F1800.000 E0.01785
G92 E0
G1 Z1.300 F7800.000
G1 X81.292 Y107.625
G1 F1800.000 E1.00000
G1 X81.263 Y107.754 F600.000 E1.01139
G1 X81.292 Y107.625 F7800.000
G1 X81.241 Y107.549 F600.000 E1.01931
G1 X81.180 Y107.497 E1.02630
G1 F1800.000 E0.02630
G92 E0
G1 X83.720 Y107.497 F7800.000
G1 F1800.000 E1.00000
G1 X83.781 Y107.549 F600.000 E1.00699
G1 X83.832 Y107.625 E1.01491
G1 X83.803 Y107.754 E1.02630
G1 F1800.000 E0.02630
G92 E0
G1 X86.260 Y107.497 F7800.000
G1 F1800.000 E1.00000
G1 X86.321 Y107.549 F600.000 E1.00699
G1 X86.372 Y107.625 E1.01491
G1 X86.343 Y107.754 E1.02630
G1 F1800.000 E0.02630
G92 E0
G1 X88.800 Y107.497 F7800.000
G1 F1800.000 E1.00000
G1 X88.861 Y107.549 F600.000 E1.00699
G1 X88.912 Y107.625 E1.01491
G1 X88.883 Y107.754 E1.02630
G1 F1800.000 E0.02630
G92 E0
G1 X91.340 Y107.497 F7800.000
G1 F1800.000 E1.00000
G1 X91.401 Y107.549 F600.000 E1.00699
G1 X91.452 Y107.625 E1.01491
G1 X91.423 Y107.754 E1.02630
G1 F1800.000 E0.02630
G92 E0
G1 X93.880 Y107.497 F7800.000
G1 F1800.000 E1.00000
G1 X93.941 Y107.549 F600.000 E1.00699
G1 X93.992 Y107.625 E1.01491
G1 X93.963 Y107.754 E1.02630
G1 F1800.000 E0.02630
G92 E0
G1 X96.420 Y107.497 F7800.000
G1 F1800.000 E1.00000
G1 X96.481 Y107.549 F600.000 E1.00699
G1 X96.532 Y107.625 E1.01491
G1 X96.503 Y107.754 E1.02630
G1 F1800.000 E0.02630
G92 E0
G1 X98.960 Y107.497 F7800.000
G1 F1800.000 E1.00000
G1 X99.021 Y107.549 F600.000 E1.00699
G1 X99.072 Y107.625 E1.01491
G1 X99.043 Y107.754 E1.02630
G1 F1800.000 E0.02630
G92 E0
G1 X101.500 Y107.497 F7800.000
G1 F1800.000 E1.00000
G1 X101.561 Y107.549 F600.000 E1.00699
G1 X101.612 Y107.625 E1.01491
G1 X101.583 Y107.754 E1.02630
G1 F1800.000 E0.02630
G92 E0
G1 X104.040 Y107.497 F7800.000
G1 F1800.000 E1.00000
G1 X104.101 Y107.549 F600.000 E1.00699
G1 X104.152 Y107.625 E1.01491
G1 X104.123 Y107.754 E1.02630
G1 F1800.000 E0.02630
G92 E0
G1 X106.580 Y107.497 F7800.000
G1 F1800.000 E1.00000
G1 X106.641 Y107.549 F600.000 E1.00699
G1 X106.692 Y107.625 E1.01491
G1 X106.663 Y107.754 E1.02630
G1 F1800.000 E0.02630
G92 E0
G1 X109.120 Y107.497 F7800.000
G1 F1800.000 E1.00000
G1 X109.181 Y107.549 F600.000 E1.00699
G1 X109.232 Y107.625 E1.01491
G1 X109.203 Y107.754 E1.02630
G1 F1800.000 E0.02630
G92 E0
G1 X111.660 Y107.497 F7800.000
G1 F1800.000 E1.00000
