; generated by Slic3r 0.9.9-dev on 2013-04-21 at 19:09:28

; layer_height = 0.3
; perimeters = 3
; top_solid_layers = 3
; bottom_solid_layers = 3
; fill_density = 0.20
; perimeter_speed = 48
; infill_speed = 48
; travel_speed = 250
; scale = 1
; nozzle_diameter = 0.5
; filament_diameter = 1.75
; extrusion_multiplier = 1
; perimeters extrusion width = 0.70mm
; infill extrusion width = 0.70mm
; support material extrusion width = 0.70mm
; first layer extrusion width = 0.70mm

M107
M190 S60 ; wait for bed temperature to be reached
M104 S200 ; set temperature
G28 ; home all axes
G92 E0 ; reset extruder
;G1 E3 F1000 ; prime extruder 3mm
;G1 E2 F1000 ; retract extruder 1mm
;G90 E0 ; reset extruder
M109 S200 ; wait for temperature to be reached
G90 ; use absolute coordinates
G21 ; set units to millimeters
G92 E0
M82 ; use absolute distances for extrusion
G1 F5040.000 E-3.20000
G92 E0
G1 Z0.300 F15000.000
G1 X69.900 Y63.550
G1 F5040.000 E3.20000
G1 X72.100 Y61.100 F900.000 E3.46880
G1 X72.510 Y60.710 E3.51499
G1 X72.950 Y60.360 E3.56089
G1 X75.390 Y58.590 E3.80696
G1 X75.860 Y58.280 E3.85292
G1 X76.600 Y57.900 E3.92083
G1 X79.600 Y56.570 E4.18872
G1 X80.120 Y56.390 E4.23364
G1 X80.660 Y56.250 E4.27917
G1 X83.600 Y55.620 E4.52462
G1 X84.150 Y55.530 E4.57012
G1 X84.710 Y55.480 E4.61601
G1 X88.000 Y55.480 E4.88459
G1 X88.820 Y55.530 E4.95165
G1 X127.650 Y60.340 E8.14567
G1 X128.440 Y60.520 E8.21181
G1 X128.940 Y60.690 E8.25492
G1 X129.670 Y61.020 E8.32032
G1 X129.910 Y61.150 E8.34260
G1 X130.360 Y61.440 E8.38631
G1 X130.790 Y61.760 E8.43006
G1 X131.190 Y62.120 E8.47399
G1 X131.560 Y62.500 E8.51729
G1 X131.730 Y62.710 E8.53934
G1 X132.050 Y63.140 E8.58310
G1 X132.340 Y63.590 E8.62680
G1 X132.690 Y64.310 E8.69215
G1 X132.790 Y64.550 E8.71338
G1 X132.960 Y65.060 E8.75726
G1 X133.090 Y65.580 E8.80102
G1 X133.180 Y66.110 E8.84490
G1 X133.220 Y66.640 E8.88829
G1 X133.220 Y86.260 E10.48992
G1 X133.180 Y86.790 E10.53331
G1 X133.090 Y87.320 E10.57720
G1 X132.960 Y87.840 E10.62095
G1 X132.790 Y88.350 E10.66484
G1 X132.580 Y88.840 E10.70836
G1 X132.200 Y89.540 E10.77338
G1 X131.730 Y90.200 E10.83952
G1 X131.370 Y90.600 E10.88345
G1 X130.990 Y90.970 E10.92674
G1 X130.360 Y91.460 E10.99190
G1 X129.670 Y91.880 E11.05784
G1 X128.940 Y92.210 E11.12324
G1 X92.970 Y104.260 E14.21995
G1 X92.670 Y104.340 E14.24529
G1 X92.070 Y104.450 E14.29509
G1 X91.460 Y104.510 E14.34513
G1 X81.570 Y104.510 E15.15247
G1 X81.020 Y104.460 E15.19756
G1 X80.480 Y104.370 E15.24225
G1 X79.950 Y104.240 E15.28679
G1 X79.430 Y104.060 E15.33171
G1 X78.680 Y103.720 E15.39894
G1 X78.210 Y103.440 E15.44360
G1 X77.550 Y102.950 E15.51070
G1 X77.150 Y102.580 E15.55518
G1 X76.600 Y101.970 E15.62223
G1 X76.280 Y101.520 E15.66730
G1 X76.140 Y101.290 E15.68928
G1 X67.500 Y85.500 E17.15861
G1 X67.180 Y84.830 E17.21922
G1 X67.010 Y84.370 E17.25926
G1 X66.080 Y81.510 E17.50476
G1 X65.930 Y80.970 E17.55051
G1 X65.870 Y80.690 E17.57389
G1 X65.790 Y80.130 E17.62006
G1 X65.480 Y77.130 E17.86627
G1 X65.450 Y76.590 E17.91042
G1 X65.480 Y75.760 E17.97821
G1 X65.790 Y72.770 E18.22360
G1 X65.870 Y72.220 E18.26897
G1 X65.930 Y71.940 E18.29235
G1 X66.080 Y71.400 E18.33810
G1 X67.010 Y68.540 E18.58360
G1 X67.320 Y67.760 E18.65212
G1 X67.580 Y67.270 E18.69740
G1 X69.230 Y64.420 E18.96624
G1 X69.550 Y63.970 E19.01131
G1 X69.834 Y63.623 E19.04793
G1 X69.900 Y63.550 E19.05595
G1 F5040.000 E15.85595
G92 E0
G1 X99.070 Y67.509 F15000.000
G1 F5040.000 E3.20000
G1 X99.070 Y66.919 F900.000 E3.24811
G1 X101.570 Y66.919 E3.45219
G1 X101.570 Y73.289 E3.97220
G1 F5040.000 E0.77220
G92 E0
G1 X100.394 Y76.485 F15000.000
G1 X100.082 Y79.366
G1 X101.570 Y79.630
G1 F5040.000 E3.20000
G1 X101.570 Y86.000 F900.000 E3.71998
G1 X99.070 Y85.411 E3.92966
G1 X99.070 Y86.000 E3.97776
G1 F5040.000 E0.77776
G92 E0
G1 X97.725 Y84.648 F15000.000
G1 X104.070 Y66.919
G1 F5040.000 E3.20000
G1 X104.070 Y86.000 F900.000 E4.75760
G1 X106.570 Y86.000 E4.96168
G1 X106.570 Y66.919 E6.51928
G1 X109.070 Y66.919 E6.72336
G1 X109.070 Y86.000 E8.28096
G1 X111.570 Y86.000 E8.48504
G1 X111.570 Y66.919 E10.04264
G1 X114.070 Y66.919 E10.24672
G1 X114.070 Y86.000 E11.80432
G1 X116.570 Y86.000 E12.00840
G1 X116.570 Y66.919 E13.56600
G1 X119.070 Y66.919 E13.77008
G1 X119.070 Y86.000 E15.32767
G1 X121.570 Y86.000 E15.53176
G1 X121.570 Y66.919 E17.08935
G1 X124.070 Y66.919 E17.29344
G1 X124.070 Y86.000 E18.85103
G1 X126.570 Y86.000 E19.05512
G1 X126.570 Y66.919 E20.61271
G1 F5040.000 E17.41271
G92 E0
G1 X101.523 Y69.771 F15000.000
G1 X88.657 Y89.642
G1 F5040.000 E3.20000
G1 X89.843 Y89.390 F900.000 E3.29892
G1 X89.843 Y96.552 E3.88358
G1 X88.657 Y96.552 E3.98034
G1 X88.657 Y89.740 E4.53642
G1 X88.657 Y89.642 E4.54443
G1 F5040.000 E1.34443
G92 E0
G1 X87.848 Y88.866 F15000.000
G1 X92.801 Y87.386
G1 X97.725 Y84.648
G1 X100.082 Y79.366
G1 X98.021 Y71.330
G1 X94.955 Y67.109
G1 X92.780 Y65.529
G1 X87.818 Y63.917
G1 X82.603 Y64.465
G1 X78.085 Y67.074
G1 X76.286 Y69.072
G1 X74.164 Y73.838
G1 X74.164 Y79.055
G1 X74.995 Y81.611
G1 X77.207 Y86.782
G1 X82.348 Y89.777
G1 X85.152 Y97.361
G1 X84.343 Y96.552
G1 F5040.000 E3.20000
G1 X83.157 Y96.552 F900.000 E3.29676
G1 X83.157 Y89.390 E3.88142
G1 X84.343 Y89.642 E3.98034
G1 X84.343 Y96.454 E4.53642
G1 X84.343 Y96.552 E4.54443
G1 X84.997 Y97.207 F15000.000
G1 X82.503 Y97.207 F900.000 E4.74805
G1 X82.503 Y89.640 E5.36577
G1 X79.629 Y88.360 E5.62256
G1 X77.305 Y86.672 E5.85707
G1 X75.383 Y84.537 E6.09158
G1 X73.946 Y82.049 E6.32610
G1 X73.059 Y79.317 E6.56061
G1 X72.758 Y76.460 E6.79512
G1 X73.059 Y73.603 E7.02964
G1 X73.946 Y70.870 E7.26415
G1 X75.383 Y68.382 E7.49866
G1 X77.305 Y66.248 E7.73318
G1 X79.629 Y64.559 E7.96769
G1 X82.254 Y63.391 E8.20220
G1 X85.064 Y62.793 E8.43671
G1 X87.936 Y62.793 E8.67123
G1 X90.746 Y63.391 E8.90574
G1 X93.371 Y64.559 E9.14025
G1 X95.695 Y66.248 E9.37476
G1 X97.617 Y68.382 E9.60928
G1 X99.054 Y70.870 E9.84379
G1 X99.941 Y73.603 E10.07830
G1 X100.242 Y76.460 E10.31282
G1 X99.941 Y79.317 E10.54733
G1 X99.054 Y82.049 E10.78184
G1 X97.617 Y84.537 E11.01636
G1 X95.695 Y86.672 E11.25087
G1 X93.371 Y88.360 E11.48538
G1 X90.497 Y89.640 E11.74217
G1 X90.497 Y97.207 E12.35989
G1 X88.003 Y97.207 E12.56351
G1 X88.003 Y89.112 E13.22429
G1 X90.443 Y88.593 E13.42791
G1 X92.879 Y87.509 E13.64565
G1 X95.037 Y85.941 E13.86337
G1 X96.822 Y83.959 E14.08110
G1 X98.155 Y81.649 E14.29885
G1 X98.980 Y79.112 E14.51654
G1 X99.258 Y76.460 E14.73430
G1 X98.980 Y73.807 E14.95203
G1 X98.155 Y71.270 E15.16976
G1 X96.822 Y68.960 E15.38750
G1 X95.037 Y66.978 E15.60523
G1 X92.879 Y65.410 E15.82297
G1 X90.442 Y64.326 E16.04071
G1 X87.834 Y63.771 E16.25843
G1 X85.167 Y63.771 E16.47614
G1 X82.557 Y64.326 E16.69391
G1 X80.121 Y65.411 E16.91163
G1 X77.963 Y66.978 E17.12935
G1 X76.178 Y68.960 E17.34710
G1 X74.845 Y71.270 E17.56483
G1 X74.020 Y73.807 E17.78257
G1 X73.742 Y76.460 E18.00029
G1 X74.021 Y79.112 E18.21804
G1 X74.845 Y81.649 E18.43575
G1 X76.178 Y83.959 E18.65350
G1 X77.963 Y85.941 E18.87123
G1 X80.121 Y87.509 E19.08896
G1 X82.558 Y88.594 E19.30670
G1 X84.997 Y89.112 E19.51030
G1 X84.997 Y97.109 E20.16307
G1 X84.997 Y97.207 E20.17109
G1 X85.652 Y97.861 F15000.000
G1 X81.848 Y97.861 F900.000 E20.48156
G1 X81.848 Y90.065 E21.11801
G1 X79.300 Y88.930 E21.34572
G1 X76.865 Y87.161 E21.59146
G1 X74.850 Y84.924 E21.83721
G1 X73.345 Y82.316 E22.08295
G1 X72.415 Y79.453 E22.32869
G1 X72.100 Y76.460 E22.57444
G1 X72.415 Y73.466 E22.82018
G1 X73.345 Y70.603 E23.06593
G1 X74.850 Y67.996 E23.31167
G1 X76.865 Y65.759 E23.55741
G1 X79.300 Y63.989 E23.80316
G1 X82.050 Y62.765 E24.04890
G1 X84.995 Y62.139 E24.29464
G1 X88.005 Y62.139 E24.54039
G1 X90.950 Y62.765 E24.78613
G1 X93.700 Y63.989 E25.03188
G1 X96.135 Y65.759 E25.27762
G1 X98.150 Y67.996 E25.52336
G1 X99.655 Y70.603 E25.76911
G1 X100.585 Y73.466 E26.01485
G1 X100.900 Y76.460 E26.26060
G1 X100.571 Y79.498 E26.51008
G1 X99.655 Y82.316 E26.75200
G1 X98.150 Y84.924 E26.99775
G1 X96.135 Y87.161 E27.24349
G1 X93.700 Y88.930 E27.48924
G1 X91.152 Y90.065 E27.71694
G1 X91.152 Y97.861 E28.35339
G1 X87.348 Y97.861 E28.66387
G1 X87.348 Y88.494 E29.42858
G1 X87.765 Y88.494 E29.46257
G1 X90.239 Y87.968 E29.66908
G1 X92.550 Y86.939 E29.87558
G1 X94.597 Y85.452 E30.08208
G1 X96.289 Y83.572 E30.28858
G1 X97.554 Y81.381 E30.49509
G1 X98.336 Y78.975 E30.70157
G1 X98.600 Y76.460 E30.90808
G1 X98.336 Y73.944 E31.11458
G1 X97.554 Y71.538 E31.32109
G1 X96.289 Y69.347 E31.52759
G1 X94.597 Y67.467 E31.73409
G1 X92.550 Y65.980 E31.94060
G1 X90.239 Y64.952 E32.14710
G1 X87.765 Y64.426 E32.35360
G1 X85.235 Y64.426 E32.56009
G1 X82.761 Y64.952 E32.76661
G1 X80.450 Y65.980 E32.97310
G1 X78.403 Y67.467 E33.17960
G1 X76.711 Y69.347 E33.38611
G1 X75.446 Y71.538 E33.59261
G1 X74.664 Y73.944 E33.79911
G1 X74.400 Y76.460 E34.00561
G1 X74.664 Y78.975 E34.21212
G1 X75.446 Y81.381 E34.41861
G1 X76.711 Y83.572 E34.62512
G1 X78.403 Y85.452 E34.83162
G1 X80.450 Y86.939 E35.03812
G1 X82.761 Y87.968 E35.24462
G1 X85.235 Y88.494 E35.45111
G1 X85.652 Y88.494 E35.48512
G1 X85.652 Y97.763 E36.24181
G1 X85.652 Y97.861 E36.24983
G1 X85.085 Y97.534 F15000.000
G1 F5040.000 E33.04983
G92 E0
G1 X89.280 Y96.172 F15000.000
G1 F5040.000 E3.20000
G1 X89.037 Y95.930 F900.000 E3.21712
G1 X89.463 Y95.789 E3.23946
G1 X89.037 Y95.364 E3.26946
G1 X89.463 Y95.223 E3.29180
G1 X89.037 Y94.798 E3.32180
G1 X89.463 Y94.657 E3.34414
G1 X89.037 Y94.232 E3.37414
G1 X89.463 Y94.091 E3.39648
G1 X89.037 Y93.666 E3.42648
G1 X89.463 Y93.526 E3.44882
G1 X89.037 Y93.100 E3.47881
G1 X89.463 Y92.960 E3.50116
G1 X89.037 Y92.535 E3.53115
G1 X89.463 Y92.394 E3.55350
G1 X89.037 Y91.969 E3.58349
G1 X89.463 Y91.828 E3.60583
G1 X89.037 Y91.403 E3.63583
G1 X89.463 Y91.262 E3.65817
G1 X89.037 Y90.837 E3.68817
G1 X89.463 Y90.696 E3.71051
G1 X89.037 Y90.271 E3.74051
G1 X89.220 Y89.888 E3.76169
G1 X89.463 Y90.131 E3.77881
G1 F5040.000 E0.57881
G92 E0
G1 X90.652 Y89.777 F15000.000
G1 X96.683 Y83.891
G1 X100.082 Y79.366
G1 X98.021 Y71.330
G1 X94.955 Y67.109
G1 X92.780 Y65.529
G1 X87.818 Y63.917
G1 X82.603 Y64.465
G1 X78.085 Y67.074
G1 X76.286 Y69.072
G1 X74.164 Y73.838
G1 X74.164 Y79.055
G1 X74.995 Y81.611
G1 X77.207 Y86.782
G1 X82.348 Y89.777
G1 X85.152 Y97.361
G1 X83.780 Y96.172
G1 F5040.000 E3.20000
G1 X83.537 Y95.930 F900.000 E3.21701
G1 X83.963 Y95.792 E3.23916
G1 X83.537 Y95.367 E3.26897
G1 X83.963 Y95.230 E3.29112
G1 X83.537 Y94.805 E3.32093
G1 X83.963 Y94.668 E3.34308
G1 X83.537 Y94.243 E3.37289
G1 X83.963 Y94.105 E3.39504
G1 X83.537 Y93.680 E3.42485
G1 X83.963 Y93.543 E3.44700
G1 X83.537 Y93.118 E3.47681
G1 X83.963 Y92.981 E3.49895
G1 X83.537 Y92.556 E3.52876
G1 X83.963 Y92.419 E3.55091
G1 X83.537 Y91.994 E3.58072
G1 X83.963 Y91.856 E3.60287
G1 X83.537 Y91.431 E3.63268
G1 X83.963 Y91.294 E3.65483
G1 X83.537 Y90.869 E3.68464
G1 X83.963 Y90.732 E3.70679
G1 X83.537 Y90.307 E3.73660
G1 X83.720 Y89.927 E3.75749
G1 X83.963 Y90.169 E3.77451
G1 X82.641 Y89.219 F15000.000
G1 X82.398 Y88.977 F900.000 E3.79081
G1 F5040.000 E0.59081
G92 E0
G1 X82.586 Y88.444 F15000.000
G1 X77.207 Y86.782
G1 X74.995 Y81.611
G1 X74.164 Y79.055
G1 X74.164 Y73.838
G1 X76.286 Y69.072
G1 X78.085 Y67.074
G1 X82.603 Y64.465
G1 X87.818 Y63.917
G1 X92.780 Y65.529
G1 X94.955 Y67.109
G1 X98.021 Y71.330
G1 X100.082 Y79.366
G1 X96.683 Y83.891
G1 X90.652 Y89.777
G1 X90.465 Y89.280
G1 F5040.000 E3.20000
G1 X90.223 Y89.038 F900.000 E3.21630
G1 F5040.000 E0.01630
G92 E0
G1 Z0.600 F15000.000
G1 X90.652 Y89.777
G1 X97.726 Y84.647
G1 X99.070 Y86.000
G1 F5040.000 E3.20000
G1 X99.070 Y85.411 F1960.454 E3.24811
G1 X101.570 Y86.000 E3.45778
G1 X101.570 Y79.630 E3.97776
G1 F5040.000 E0.77776
G92 E0
G1 X100.032 Y79.521 F15000.000
G1 X100.393 Y76.483
G1 X101.570 Y73.289
G1 F5040.000 E3.20000
G1 X101.570 Y66.919 F1960.454 E3.72001
G1 X99.070 Y66.919 E3.92410
G1 X99.070 Y67.509 E3.97220
G1 X99.188 Y70.811 F15000.000
G1 X104.070 Y66.919
G1 X104.070 Y86.000 F1960.454 E5.52980
G1 X106.570 Y86.000 E5.73388
G1 X106.570 Y66.919 E7.29148
G1 X109.070 Y66.919 E7.49556
G1 X109.070 Y86.000 E9.05316
G1 X111.570 Y86.000 E9.25724
G1 X111.570 Y66.919 E10.81484
G1 X114.070 Y66.919 E11.01892
G1 X114.070 Y86.000 E12.57652
G1 X116.570 Y86.000 E12.78060
G1 X116.570 Y66.919 E14.33820
G1 X119.070 Y66.919 E14.54228
G1 X119.070 Y86.000 E16.09988
G1 X121.570 Y86.000 E16.30396
G1 X121.570 Y66.919 E17.86156
G1 X124.070 Y66.919 E18.06564
G1 X124.070 Y86.000 E19.62323
G1 X126.570 Y86.000 E19.82732
G1 X126.570 Y66.919 E21.38491
G1 F5040.000 E18.18491
G92 E0
G1 X101.523 Y69.771 F15000.000
G1 X88.657 Y96.552
G1 F5040.000 E3.20000
G1 X88.657 Y89.642 F612.642 E3.76409
G1 X89.843 Y89.390 E3.86301
G1 X89.843 Y96.552 E4.44768
G1 X88.756 Y96.552 E4.53642
G1 X88.657 Y96.552 E4.54443
G1 F5040.000 E1.34443
G92 E0
G1 X84.343 Y96.552 F15000.000
G1 F5040.000 E3.20000
G1 X83.157 Y96.552 F612.642 E3.29676
G1 X83.157 Y89.390 E3.88142
G1 X84.343 Y89.642 E3.98034
G1 X84.343 Y96.454 E4.53642
G1 X84.343 Y96.552 E4.54443
G1 X84.997 Y97.207 F15000.000
G1 X82.503 Y97.207 F1960.454 E4.74805
G1 X82.503 Y89.640 E5.36577
G1 X79.629 Y88.360 E5.62256
G1 X77.305 Y86.672 E5.85707
G1 X75.383 Y84.537 E6.09158
G1 X73.946 Y82.049 E6.32610
G1 X73.059 Y79.317 E6.56061
G1 X72.758 Y76.460 E6.79512
G1 X73.059 Y73.603 E7.02964
G1 X73.946 Y70.870 E7.26415
G1 X75.383 Y68.382 E7.49866
G1 X77.305 Y66.248 E7.73317
G1 X79.629 Y64.559 E7.96769
G1 X82.254 Y63.391 E8.20220
G1 X85.064 Y62.793 E8.43671
G1 X87.936 Y62.793 E8.67123
G1 X90.746 Y63.391 E8.90574
G1 X93.371 Y64.559 E9.14025
G1 X95.695 Y66.248 E9.37476
G1 X97.617 Y68.382 E9.60928
G1 X99.054 Y70.870 E9.84379
G1 X99.941 Y73.603 E10.07830
G1 X100.242 Y76.460 E10.31282
G1 X99.941 Y79.317 E10.54733
G1 X99.897 Y79.454 E10.55916
G1 X99.054 Y82.049 E10.78184
G1 X97.617 Y84.537 E11.01636
G1 X95.695 Y86.672 E11.25087
G1 X93.371 Y88.360 E11.48538
G1 X90.497 Y89.640 E11.74217
G1 X90.497 Y97.207 E12.35989
G1 X88.003 Y97.207 E12.56351
G1 X88.003 Y89.112 E13.22429
G1 X90.443 Y88.594 E13.42790
G1 X92.879 Y87.509 E13.64563
G1 X95.037 Y85.941 E13.86337
G1 X96.822 Y83.959 E14.08110
G1 X98.155 Y81.649 E14.29884
G1 X98.980 Y79.112 E14.51657
G1 X99.258 Y76.460 E14.73430
G1 X98.980 Y73.807 E14.95203
G1 X98.155 Y71.270 E15.16976
G1 X96.822 Y68.960 E15.38750
G1 X95.037 Y66.978 E15.60523
G1 X92.879 Y65.411 E15.82296
G1 X90.443 Y64.326 E16.04070
G1 X87.834 Y63.771 E16.25843
G1 X85.166 Y63.771 E16.47616
G1 X82.557 Y64.326 E16.69389
G1 X80.121 Y65.411 E16.91163
G1 X77.963 Y66.978 E17.12936
G1 X76.178 Y68.960 E17.34709
G1 X74.845 Y71.270 E17.56483
G1 X74.020 Y73.807 E17.78256
G1 X73.742 Y76.460 E18.00029
G1 X74.020 Y79.112 E18.21802
G1 X74.845 Y81.649 E18.43575
G1 X76.178 Y83.959 E18.65349
G1 X77.963 Y85.941 E18.87122
G1 X80.121 Y87.509 E19.08895
G1 X82.557 Y88.594 E19.30669
G1 X84.997 Y89.112 E19.51030
G1 X84.997 Y97.109 E20.16307
G1 X84.997 Y97.207 E20.17108
G1 X85.652 Y97.861 F15000.000
G1 X81.848 Y97.861 F980.227 E20.48156
G1 X81.848 Y90.065 E21.11801
G1 X79.300 Y88.930 E21.34571
G1 X76.865 Y87.161 E21.59146
G1 X74.850 Y84.924 E21.83720
G1 X73.345 Y82.317 E22.08295
G1 X72.415 Y79.453 E22.32869
G1 X72.100 Y76.460 E22.57444
G1 X72.415 Y73.466 E22.82018
G1 X73.345 Y70.603 E23.06592
G1 X74.850 Y67.996 E23.31167
G1 X76.865 Y65.759 E23.55741
G1 X79.300 Y63.989 E23.80316
G1 X82.050 Y62.765 E24.04890
G1 X84.995 Y62.139 E24.29464
G1 X88.005 Y62.139 E24.54039
G1 X90.950 Y62.765 E24.78613
G1 X93.700 Y63.989 E25.03188
G1 X96.135 Y65.758 E25.27762
G1 X98.150 Y67.996 E25.52336
G1 X99.655 Y70.603 E25.76911
G1 X100.585 Y73.466 E26.01485
G1 X100.900 Y76.460 E26.26060
G1 X100.585 Y79.453 E26.50634
G1 X100.519 Y79.657 E26.52378
G1 X99.655 Y82.317 E26.75209
G1 X98.150 Y84.924 E26.99783
G1 X96.135 Y87.161 E27.24357
G1 X93.700 Y88.930 E27.48932
G1 X91.152 Y90.065 E27.71702
G1 X91.152 Y97.861 E28.35348
G1 X87.348 Y97.861 E28.66395
G1 X87.348 Y88.494 E29.42866
G1 X87.765 Y88.494 E29.46265
G1 X90.239 Y87.968 E29.66915
G1 X92.550 Y86.939 E29.87566
G1 X94.597 Y85.452 E30.08216
G1 X96.289 Y83.572 E30.28866
G1 X97.554 Y81.381 E30.49516
G1 X98.336 Y78.975 E30.70166
G1 X98.600 Y76.460 E30.90817
G1 X98.336 Y73.944 E31.11467
G1 X97.554 Y71.538 E31.32117
