; generated by Slic3r 0.9.8 on 2013-04-18 at 18:31:20

; layer_height = 0.4
; perimeters = 3
; top_solid_layers = 3
; bottom_solid_layers = 3
; fill_density = 0.2
; perimeter_speed = 30
; infill_speed = 60
; travel_speed = 130
; scale = 1
; nozzle_diameter = 0.5
; filament_diameter = 1.75
; extrusion_multiplier = 1
; perimeters extrusion width = 0.53mm
; infill extrusion width = 0.53mm
; support material extrusion width = 0.53mm
; first layer extrusion width = 0.80mm

M107
M190 S80 ; wait for bed temperature to be reached
M104 S205 ; set temperature
G28 ; home all axes
M109 S205 ; wait for temperature to be reached
G90 ; use absolute coordinates
G21 ; set units to millimeters
G92 E0
M82 ; use absolute distances for extrusion
G1 F1800.000 E-1.00000
G92 E0
G1 Z0.400 F7800.000
G1 X126.070 Y110.601
G1 F1800.000 E1.00000
G1 X92.460 Y121.712 F540.000 E5.33046
G1 X91.870 Y121.872 E5.40524
G1 X90.960 Y122.021 E5.51807
G1 X90.350 Y122.051 E5.59278
G1 X80.880 Y122.041 E6.75129
G1 X80.340 Y122.001 E6.81753
G1 X80.080 Y121.962 E6.84971
G1 X79.550 Y121.851 E6.91593
G1 X79.030 Y121.702 E6.98213
G1 X78.520 Y121.511 E7.04871
G1 X78.280 Y121.402 E7.08101
G1 X77.800 Y121.152 E7.14722
G1 X77.340 Y120.872 E7.21310
G1 X76.910 Y120.541 E7.27941
G1 X76.310 Y120.001 E7.37816
G1 X75.790 Y119.391 E7.47621
G1 X75.480 Y118.941 E7.54306
G1 X75.080 Y118.242 E7.64169
G1 X74.780 Y117.492 E7.74051
G1 X69.330 Y101.571 E9.79903
G1 X68.720 Y99.671 E10.04315
G1 X68.550 Y98.891 E10.14081
G1 X68.460 Y98.141 E10.23322
G1 X68.260 Y95.951 E10.50224
G1 X68.270 Y95.151 E10.60012
G1 X68.500 Y92.901 E10.87680
G1 X68.630 Y92.111 E10.97475
G1 X68.770 Y91.601 E11.03945
G1 X69.450 Y89.432 E11.31764
G1 X69.650 Y88.881 E11.38923
G1 X69.900 Y88.351 E11.46092
G1 X71.250 Y85.981 E11.79459
G1 X71.550 Y85.491 E11.86488
G1 X72.090 Y84.822 E11.97015
G1 X73.650 Y83.091 E12.25512
G1 X74.040 Y82.721 E12.32089
G1 X74.460 Y82.391 E12.38623
G1 X76.270 Y81.051 E12.66173
G1 X76.750 Y80.721 E12.73299
G1 X77.250 Y80.441 E12.80310
G1 X80.000 Y79.212 E13.17163
G1 X80.540 Y79.021 E13.24166
G1 X81.090 Y78.871 E13.31141
G1 X83.100 Y78.441 E13.56286
G1 X83.640 Y78.351 E13.62983
G1 X84.450 Y78.291 E13.72919
G1 X86.720 Y78.271 E14.00690
G1 X87.180 Y78.291 E14.06323
G1 X124.630 Y80.521 E18.65275
G1 X125.420 Y80.641 E18.75051
G1 X125.940 Y80.781 E18.81639
G1 X126.690 Y81.061 E18.91432
G1 X127.170 Y81.301 E18.97997
G1 X127.630 Y81.572 E19.04522
G1 X128.280 Y82.051 E19.14407
G1 X128.860 Y82.601 E19.24186
G1 X129.210 Y83.001 E19.30688
G1 X129.680 Y83.661 E19.40600
G1 X129.820 Y83.891 E19.43894
G1 X130.060 Y84.371 E19.50459
G1 X130.360 Y85.111 E19.60227
G1 X130.440 Y85.371 E19.63555
G1 X130.560 Y85.891 E19.70084
G1 X130.650 Y86.421 E19.76660
G1 X130.700 Y87.221 E19.86466
G1 X130.690 Y104.471 E21.97492
G1 X130.650 Y105.012 E22.04116
G1 X130.610 Y105.281 E22.07455
G1 X130.500 Y105.821 E22.14197
G1 X130.350 Y106.342 E22.20818
G1 X130.150 Y106.851 E22.27519
G1 X129.920 Y107.342 E22.34141
G1 X129.650 Y107.812 E22.40772
G1 X129.340 Y108.251 E22.47357
G1 X128.990 Y108.682 E22.54139
G1 X128.620 Y109.071 E22.60716
G1 X128.210 Y109.432 E22.67391
G1 X127.550 Y109.902 E22.77303
G1 X127.310 Y110.041 E22.80702
G1 X126.830 Y110.291 E22.87322
G1 X126.173 Y110.562 E22.96014
G1 X126.070 Y110.601 E22.97364
G1 F1800.000 E21.97364
G92 E0
G1 X123.961 Y104.205 F7800.000
G1 F1800.000 E1.00000
G1 X123.961 Y87.230 F1080.000 E3.07654
G1 X121.461 Y87.228 E3.38237
G1 X121.461 Y104.205 E5.45920
G1 X118.961 Y104.205 E5.76504
G1 X118.961 Y87.226 E7.84216
G1 X116.461 Y87.223 E8.14800
G1 X116.461 Y104.205 E10.22542
G1 X113.961 Y104.205 E10.53126
G1 X113.961 Y87.221 E12.60898
G1 X111.461 Y87.218 E12.91481
G1 X111.461 Y104.205 E14.99282
G1 X108.961 Y104.205 E15.29866
G1 X108.961 Y87.216 E17.37697
G1 X106.461 Y87.213 E17.68280
G1 X106.461 Y104.205 E19.76141
G1 X103.961 Y104.205 E20.06724
G1 X103.961 Y87.211 E22.14615
G1 X101.461 Y87.209 E22.45198
G1 X101.461 Y104.205 E24.53118
G1 X96.460 Y100.327 F7800.000
G1 X96.460 Y104.205 F1080.000 E25.00558
G1 X98.960 Y104.205 E25.31141
G1 X98.960 Y87.206 E27.39090
G1 X96.460 Y91.110 E27.95803
G1 X96.460 Y87.204 E28.43592
G1 X93.960 Y87.201 E28.74176
G1 X93.960 Y87.669 E28.79899
G1 F1800.000 E27.79899
G92 E0
G1 X88.879 Y107.134 F7800.000
G1 F1800.000 E1.00000
G1 X88.879 Y113.847 F540.000 E1.82127
G1 X88.121 Y113.847 E1.91394
G1 X88.121 Y107.295 E2.71552
G1 X88.771 Y107.157 E2.79676
G1 X88.879 Y107.134 E2.81026
G1 X89.063 Y106.343 F7800.000
G1 X89.614 Y106.225 F540.000 E2.87925
G1 X89.614 Y114.583 E3.90166
G1 X87.386 Y114.583 E4.17431
G1 X87.386 Y106.699 E5.13875
G1 X88.955 Y106.366 E5.33500
G1 X89.063 Y106.343 E5.34850
G1 X88.910 Y105.623 F7800.000
G1 X90.350 Y104.995 F540.000 E5.54074
G1 X90.350 Y115.319 E6.80369
G1 X86.650 Y115.319 E7.25633
G1 X86.650 Y106.104 E8.38363
G1 X88.802 Y105.646 E8.65275
G1 X88.910 Y105.623 E8.66625
G1 X89.471 Y106.099 F7800.000
G1 F1800.000 E7.66625
G92 E0
G1 X82.621 Y107.134 F7800.000
G1 F1800.000 E1.00000
G1 X83.379 Y107.295 F540.000 E1.09474
G1 X83.379 Y113.847 E1.89632
G1 X82.621 Y113.847 E1.98899
G1 X82.621 Y107.244 E2.79676
G1 X82.621 Y107.134 E2.81026
G1 X81.886 Y106.225 F7800.000
G1 X84.114 Y106.699 F540.000 E3.08900
G1 X84.114 Y114.583 E4.05344
G1 X81.886 Y114.583 E4.32609
G1 X81.886 Y106.336 E5.33499
G1 X81.886 Y106.225 E5.34849
G1 X82.484 Y105.589 F7800.000
G1 X84.850 Y106.104 F540.000 E5.64466
G1 X84.850 Y115.319 E6.77196
G1 X81.150 Y115.319 E7.22460
G1 X81.150 Y104.995 E8.48755
G1 X82.384 Y105.544 E8.65274
G1 X82.484 Y105.589 E8.66624
G1 X82.660 Y106.303 F7800.000
G1 F1800.000 E7.66624
G92 E0
G1 X76.414 Y90.529 F7800.000
G1 F1800.000 E1.00000
G1 X77.099 Y89.336 F540.000 E1.16840
G1 X78.477 Y87.804 E1.42046
G1 X80.282 Y86.465 E1.69535
G1 X82.503 Y85.470 E1.99311
G1 X84.518 Y85.041 E2.24516
G1 X86.780 Y85.018 E2.52188
G1 X89.147 Y85.519 E2.81786
G1 X91.218 Y86.462 E3.09619
G1 X93.015 Y87.793 E3.36975
G1 X94.493 Y89.461 E3.64240
G1 X95.597 Y91.404 E3.91582
G1 X96.213 Y93.296 E4.15925
G1 X96.498 Y95.735 E4.45962
G1 X96.283 Y97.861 E4.72100
G1 X95.533 Y100.177 E5.01881
G1 X94.501 Y101.960 E5.27091
G1 X93.012 Y103.643 E5.54581
G1 X91.499 Y104.762 E5.77593
G1 X91.027 Y105.612 E5.89485
G1 F1800.000 E4.89485
G92 E0
G1 X80.475 Y105.619 F7800.000
G1 F1800.000 E1.00000
G1 X80.009 Y104.788 F540.000 E1.11653
G1 X79.999 Y104.763 E1.11985
G1 X80.393 Y104.550 F7800.000
G1 X79.999 Y104.763 F540.000 E1.17468
G1 X78.487 Y103.645 E1.40474
G1 X76.998 Y101.961 E1.67969
G1 X75.749 Y99.502 E2.01712
G1 X75.534 Y98.839 E2.10236
G1 X75.319 Y98.176 E2.18759
G1 X75.215 Y97.862 E2.22812
G1 X75.179 Y97.520 E2.27014
G1 X75.000 Y95.597 E2.50640
G1 X75.209 Y93.618 E2.74986
G1 X75.887 Y91.446 E3.02822
G1 X76.414 Y90.529 E3.15757
M106 S242
M140 S60 ; set bed temperature
G1 F1800.000 E2.15757
G92 E0
G1 Z0.800 F7800.000
G1 X96.180 Y87.204
G1 F1800.000 E1.00000
G1 X96.460 Y87.204 F3600.000 E1.02425
G1 X96.460 Y90.433 E1.30333
G1 X96.688 Y90.755 F7800.000
G1 X98.960 Y87.206 F3600.000 E1.66751
G1 X98.960 Y104.205 E3.13645
G1 X96.460 Y104.205 E3.35249
G1 X96.460 Y101.004 E3.62910
G1 X101.461 Y104.205 F7800.000
G1 X101.461 Y87.209 F3600.000 E5.09783
G1 X103.961 Y87.211 E5.31387
G1 X103.961 Y104.205 E6.78239
G1 X106.461 Y104.205 E6.99842
G1 X106.461 Y87.213 E8.46673
G1 X108.961 Y87.216 E8.68277
G1 X108.961 Y104.205 E10.15087
G1 X111.461 Y104.205 E10.36691
G1 X111.461 Y87.218 E11.83480
G1 X113.961 Y87.221 E12.05084
G1 X113.961 Y104.205 E13.51852
G1 X116.461 Y104.205 E13.73456
G1 X116.461 Y87.223 E15.20203
G1 X118.961 Y87.226 E15.41807
G1 X118.961 Y104.205 E16.88534
G1 X121.461 Y104.205 E17.10138
G1 X121.461 Y87.228 E18.56843
G1 X123.961 Y87.230 E18.78447
G1 X123.961 Y104.205 E20.25132
G1 F1800.000 E19.25132
G92 E0
G1 X89.448 Y106.431 F7800.000
G1 F1800.000 E1.00000
G1 X89.448 Y114.417 F1800.000 E1.69012
G1 X87.552 Y114.417 E1.85401
G1 X87.552 Y106.834 E2.50929
G1 X89.372 Y106.447 E2.67010
G1 X89.448 Y106.431 E2.67684
G1 F1800.000 E1.67684
G92 E0
G1 X83.948 Y114.417 F7800.000
G1 F1800.000 E1.00000
G1 X82.052 Y114.417 F1800.000 E1.16388
G1 X82.052 Y106.431 E1.85400
G1 X83.948 Y106.834 E2.02155
G1 X83.948 Y114.339 E2.67010
G1 X83.948 Y114.417 E2.67684
G1 F1800.000 E1.67684
G92 E0
G1 X87.032 Y114.936 F7800.000
G1 F1800.000 E1.00000
G1 X87.032 Y106.413 F1800.000 E1.73655
G1 X89.083 Y105.977 E1.91776
G1 X89.968 Y105.583 E2.00144
G1 X89.968 Y114.936 E2.80971
G1 X87.110 Y114.936 E3.05666
G1 X87.032 Y114.936 E3.06340
G1 F1800.000 E2.06340
G92 E0
G1 X84.468 Y114.936 F7800.000
G1 F1800.000 E1.00000
G1 X81.532 Y114.936 F1800.000 E1.25369
G1 X81.532 Y105.583 E2.06196
G1 X82.417 Y105.977 E2.14564
G1 X84.468 Y106.413 E2.32685
G1 X84.468 Y114.858 E3.05666
G1 X84.468 Y114.936 E3.06340
G1 X84.987 Y115.456 F7800.000
G1 X81.013 Y115.456 F1800.000 E3.40690
G1 X81.013 Y105.841 E4.23777
G1 X80.132 Y105.449 E4.32106
G1 X78.232 Y104.069 E4.52405
G1 X76.660 Y102.323 E4.72704
G1 X75.485 Y100.289 E4.93003
G1 X74.759 Y98.055 E5.13301
G1 X74.514 Y95.718 E5.33600
G1 X74.759 Y93.382 E5.53899
G1 X75.485 Y91.148 E5.74198
G1 X76.660 Y89.114 E5.94497
G1 X78.232 Y87.368 E6.14795
G1 X80.132 Y85.988 E6.35094
G1 X82.278 Y85.032 E6.55393
G1 X84.576 Y84.544 E6.75692
G1 X86.924 Y84.544 E6.95991
G1 X89.222 Y85.032 E7.16290
G1 X91.368 Y85.988 E7.36588
G1 X93.268 Y87.368 E7.56887
G1 X94.840 Y89.114 E7.77186
G1 X96.015 Y91.148 E7.97485
G1 X96.741 Y93.382 E8.17784
G1 X96.986 Y95.718 E8.38082
G1 X96.741 Y98.055 E8.58381
G1 X96.015 Y100.289 E8.78680
G1 X94.840 Y102.323 E8.98979
G1 X93.268 Y104.069 E9.19278
G1 X91.368 Y105.449 E9.39576
G1 X90.487 Y105.841 E9.47906
G1 X90.487 Y115.456 E10.30992
G1 X86.513 Y115.456 E10.65343
G1 X86.513 Y105.926 E11.47695
G1 X86.823 Y105.926 E11.50377
G1 X88.922 Y105.480 E11.68920
G1 X90.882 Y104.607 E11.87462
G1 X92.618 Y103.346 E12.06005
G1 X94.054 Y101.751 E12.24547
G1 X95.127 Y99.893 E12.43090
G1 X95.790 Y97.852 E12.61633
G1 X96.014 Y95.718 E12.80175
G1 X95.790 Y93.585 E12.98718
G1 X95.127 Y91.544 E13.17261
G1 X94.054 Y89.685 E13.35803
G1 X92.618 Y88.091 E13.54346
G1 X92.562 Y88.050 E13.54946
G1 X90.882 Y86.830 E13.72888
G1 X88.922 Y85.957 E13.91431
G1 X86.823 Y85.511 E14.09974
G1 X84.677 Y85.511 E14.28516
G1 X84.609 Y85.525 E14.29116
G1 X82.578 Y85.957 E14.47059
G1 X80.618 Y86.830 E14.65602
G1 X78.882 Y88.091 E14.84144
G1 X77.446 Y89.686 E15.02687
G1 X76.373 Y91.544 E15.21229
G1 X75.710 Y93.584 E15.39772
G1 X75.486 Y95.718 E15.58315
G1 X75.710 Y97.852 E15.76857
G1 X76.373 Y99.893 E15.95400
G1 X77.446 Y101.751 E16.13943
G1 X78.882 Y103.346 E16.32485
G1 X80.618 Y104.607 E16.51028
G1 X82.578 Y105.480 E16.69570
G1 X84.677 Y105.926 E16.88113
G1 X84.987 Y105.926 E16.90795
G1 X84.987 Y115.378 E17.72474
G1 X84.987 Y115.456 E17.73147
G1 X84.537 Y115.196 F7800.000
G1 X83.594 Y113.732
G1 X83.263 Y114.063 F3600.000 E17.77374
G1 X82.495 Y114.063 E17.84313
G1 X83.594 Y112.963 E17.98354
G1 X83.594 Y112.195 E18.05293
G1 X82.406 Y113.383 E18.20471
G1 X82.406 Y112.615 E18.27411
G1 X83.594 Y111.427 E18.42589
G1 X83.594 Y110.659 E18.49528
G1 X82.406 Y111.847 E18.64706
G1 X82.406 Y111.079 E18.71645
G1 X83.594 Y109.891 E18.86823
G1 X83.594 Y109.122 E18.93763
G1 X82.406 Y110.311 E19.08940
G1 X82.406 Y109.542 E19.15880
G1 X83.594 Y108.354 E19.31059
G1 X83.594 Y107.586 E19.37998
G1 X82.406 Y108.774 E19.53177
G1 X82.406 Y108.006 E19.60116
G1 X83.370 Y107.042 E19.72437
G1 X82.737 Y106.907 E19.78288
G1 X82.406 Y107.238 E19.82514
G1 F1800.000 E18.82514
G92 E0
G1 X87.906 Y107.420 F7800.000
G1 F1800.000 E1.00000
G1 X88.237 Y107.089 F3600.000 E1.04127
G1 X89.094 Y106.982 E1.11747
G1 X87.906 Y108.170 E1.26565
G1 X87.906 Y108.920 E1.33179
G1 X89.094 Y107.732 E1.47998
G1 X89.094 Y108.482 E1.54612
G1 X87.906 Y109.670 E1.69431
G1 X87.906 Y110.420 E1.76045
G1 X89.094 Y109.232 E1.90863
G1 X89.094 Y109.982 E1.97477
G1 X87.906 Y111.170 E2.12295
G1 X87.906 Y111.920 E2.18909
G1 X89.094 Y110.732 E2.33728
G1 X89.094 Y111.482 E2.40343
G1 X87.906 Y112.670 E2.55161
G1 X87.906 Y113.420 E2.61775
G1 X89.094 Y112.232 E2.76594
G1 X89.094 Y112.982 E2.83208
G1 X88.013 Y114.063 E2.96690
G1 X88.763 Y114.063 E3.03304
G1 X89.094 Y113.732 E3.07430
G1 F1800.000 E2.07430
G92 E0
G1 X93.106 Y103.675 F7800.000
G1 F1800.000 E1.00000
G1 X92.905 Y103.877 F1200.000 E1.01486
G1 X92.317 Y104.021 E1.04646
G1 X91.282 Y105.056 E1.12287
G1 X90.940 Y104.954 E1.14150
G1 X90.375 Y105.519 E1.18315
G1 F1800.000 E0.18315
G92 E0
G1 X94.295 Y102.043 F7800.000
G1 F1800.000 E1.00000
G1 X94.999 Y101.338 F1200.000 E1.05200
G1 X94.901 Y100.993 E1.07076
G1 X95.606 Y100.288 E1.12276
G1 X95.429 Y100.021 E1.13948
G1 X95.916 Y99.534 E1.17546
G1 X95.642 Y99.364 E1.19228
G1 X96.130 Y98.876 E1.22826
G1 X95.856 Y98.706 E1.24508
G1 X96.343 Y98.219 E1.28106
G1 X96.070 Y98.049 E1.29788
G1 X96.480 Y97.638 E1.32820
G1 X96.125 Y97.549 E1.34731
G1 X96.533 Y97.142 E1.37736
G1 X96.177 Y97.053 E1.39647
G1 X96.585 Y96.646 E1.42653
G1 X96.230 Y96.557 E1.44563
G1 X96.637 Y96.150 E1.47568
G1 X96.282 Y96.061 E1.49479
G1 X96.689 Y95.654 E1.52484
G1 X96.286 Y95.613 E1.54599
G1 X96.654 Y95.246 E1.57313
G1 X96.611 Y94.844 E1.59421
G1 X96.244 Y95.212 E1.62135
G1 X96.201 Y94.810 E1.64242
G1 X96.569 Y94.442 E1.66956
G1 X96.527 Y94.041 E1.69064
G1 X96.159 Y94.408 E1.71778
G1 X96.117 Y94.007 E1.73886
G1 X96.485 Y93.639 E1.76600
G1 X96.421 Y93.259 E1.78613
G1 X96.075 Y93.605 E1.81172
G1 X95.966 Y93.270 E1.83012
G1 X96.312 Y92.923 E1.85567
G1 X96.204 Y92.588 E1.87405
G1 X95.857 Y92.935 E1.89961
G1 X95.749 Y92.600 E1.91800
G1 X96.095 Y92.253 E1.94355
G1 X95.986 Y91.918 E1.96193
G1 X95.640 Y92.265 E1.98749
G1 X95.531 Y91.930 E2.00587
G1 X95.877 Y91.583 E2.03143
G1 X95.768 Y91.248 E2.04981
G1 X95.422 Y91.595 E2.07537
G1 X95.277 Y91.295 E2.09271
G1 X95.612 Y90.961 E2.11743
G1 X95.450 Y90.679 E2.13438
G1 X95.115 Y91.014 E2.15910
G1 X94.952 Y90.733 E2.17606
G1 X95.287 Y90.398 E2.20078
G1 X95.125 Y90.116 E2.21774
G1 X94.790 Y90.451 E2.24245
G1 X94.627 Y90.170 E2.25941
G1 X94.962 Y89.835 E2.28412
G1 X94.800 Y89.554 E2.30109
G1 X94.465 Y89.888 E2.32580
G1 X94.303 Y89.607 E2.34276
G1 X94.637 Y89.272 E2.36747
G1 X94.432 Y89.034 E2.38390
G1 X94.101 Y89.365 E2.40829
G1 X93.891 Y89.131 E2.42469
G1 X94.221 Y88.801 E2.44907
G1 X94.011 Y88.567 E2.46548
G1 X93.681 Y88.897 E2.48987
G1 X93.470 Y88.664 E2.50627
G1 X93.801 Y88.334 E2.53065
G1 X93.590 Y88.100 E2.54706
G1 X93.260 Y88.430 E2.57145
G1 X93.050 Y88.197 E2.58785
G1 X93.380 Y87.866 E2.61224
G1 X93.170 Y87.633 E2.62864
G1 X92.840 Y87.963 E2.65303
G1 X92.595 Y87.763 E2.66949
G1 X92.927 Y87.432 E2.69398
G1 X92.670 Y87.245 E2.71057
G1 X92.338 Y87.577 E2.73506
G1 X92.081 Y87.390 E2.75164
G1 X92.413 Y87.058 E2.77613
G1 X92.156 Y86.871 E2.79272
G1 X91.824 Y87.203 E2.81721
G1 X91.567 Y87.016 E2.83380
G1 X91.899 Y86.684 E2.85830
G1 X91.642 Y86.498 E2.87488
G1 X91.310 Y86.830 E2.89938
G1 X91.053 Y86.643 E2.91596
G1 X91.385 Y86.311 E2.94046
G1 X91.100 Y86.152 E2.95749
G1 X90.760 Y86.492 E2.98255
G1 X90.453 Y86.355 E3.00010
G1 X90.793 Y86.015 E3.02516
G1 X90.485 Y85.879 E3.04271
G1 X90.146 Y86.218 E3.06776
G1 X89.839 Y86.081 E3.08531
G1 X90.178 Y85.742 E3.11037
G1 X89.871 Y85.605 E3.12792
G1 X89.532 Y85.945 E3.15298
G1 X89.225 Y85.808 E3.17052
G1 X89.564 Y85.468 E3.19558
G1 X89.257 Y85.332 E3.21313
G1 X88.912 Y85.676 E3.23856
G1 X88.546 Y85.598 E3.25809
G1 X88.902 Y85.243 E3.28431
G1 X88.536 Y85.165 E3.30384
G1 X88.180 Y85.521 E3.33007
G1 X87.814 Y85.443 E3.34960
G1 X88.170 Y85.087 E3.37583
G1 X87.804 Y85.010 E3.39536
G1 X87.448 Y85.365 E3.42159
G1 X87.082 Y85.287 E3.44113
G1 X87.438 Y84.932 E3.46735
G1 X87.072 Y84.854 E3.48688
G1 X86.706 Y85.220 E3.51387
G1 X86.646 Y84.835 E3.53417
G1 X86.262 Y85.220 E3.56254
G1 X86.203 Y84.835 E3.58284
G1 X85.818 Y85.220 E3.61121
G1 X85.759 Y84.835 E3.63151
G1 X85.374 Y85.220 E3.65988
G1 X85.315 Y84.835 E3.68017
G1 X84.931 Y85.220 E3.70854
G1 X84.871 Y84.835 E3.72884
G1 X84.473 Y85.233 E3.75820
G1 X84.349 Y84.913 E3.77610
G1 X83.910 Y85.353 E3.80854
G1 X83.785 Y85.033 E3.82644
G1 X83.346 Y85.473 E3.85888
G1 X83.222 Y85.153 E3.87678
G1 X82.782 Y85.592 E3.90922
G1 X82.658 Y85.273 E3.92712
G1 X82.160 Y85.770 E3.96384
G1 X81.925 Y85.562 E3.98025
